dist/img/svg/home_intro_logo.svg

<svg width="1375" height="175" viewBox="0 0 1375 175" fill="none" xmlns="http://www.w3.org/2000/svg">
<mask id="mask0_283_2508" style="mask-type:alpha" maskUnits="userSpaceOnUse" x="0" y="0" width="1375" height="175">
<g clip-path="url(#clip0_283_2508)">
<path fill-rule="evenodd" clip-rule="evenodd" d="M1375 0V42.9323H1284.83V172.939H1241.83V42.9048H1151.91V0H1374.97H1375Z" fill="#6B3D90"/>
<path d="M1139.43 172.087C1138.2 171.372 1134.67 169.311 1128.98 166.067H1129C1123.31 162.824 1103.38 151.61 1090.22 143.777C1077.08 135.943 1067.88 129.869 1063.23 126.79C1056.96 122.695 1057.21 123.822 1063.72 123.575C1067.88 123.41 1075.55 123.052 1081.59 122.503C1087.62 121.953 1092.02 121.266 1096.59 119.809C1101.14 118.352 1106.09 116.456 1110.31 113.46C1112.91 111.619 1115.56 109.777 1117.7 107.798C1127.77 98.398 1133.99 88.1184 1136.72 71.4347C1138.06 63.3265 1137.38 55.2733 1136.42 48.9516C1135.46 42.63 1134.01 39.1118 1131.82 33.9995C1125.12 18.3053 1109.76 7.09125 1102.1 4.09534C1095.09 1.34679 1088.99 0.329826 1082.69 0H879.449L879.531 0.054971C882.405 1.5117 891.165 6.73394 895.927 10.1971C900.69 13.6603 903.948 16.6562 907.506 20.6416C911.064 24.627 915.061 30.2065 916.922 32.8726C917.168 33.2299 919.769 37.5177 920.043 37.5177C931.347 37.7376 1011.49 38.0399 1045.44 38.0124C1079.38 37.9849 1080.58 37.875 1082.47 38.0124C1084.36 38.1498 1088.71 40.2387 1090.71 41.5855C1092.71 42.9323 1094.73 44.7463 1096.57 47.1376C1098.37 49.5288 1099.96 52.5247 1100.81 55.5481C1101.66 58.599 1101.77 61.7049 1101.49 64.7008C1101.19 67.6967 1100.51 70.6102 1099.22 73.1663C1097.91 75.7225 1096.02 77.9213 1094.05 79.7079C1092.08 81.4669 1090 82.7862 1088.08 83.7757C1086.17 84.7652 1084.39 85.3974 1083.51 85.6722C1082.61 85.9471 1082.61 85.8921 1082.55 85.9196L1082.55 85.9202C1082.5 85.9489 1082.23 86.0849 1062.3 86.1395C1042.21 86.1944 1002.19 86.1945 982.178 86.2219C962.169 86.2494 962.169 86.3319 961.758 86.3868C961.348 86.4418 960.526 86.5243 959.514 86.9915C958.528 87.4588 957.324 88.3383 956.284 89.3003C955.243 90.2623 954.368 91.2793 953.711 92.5986C953.026 93.9179 952.588 95.567 952.534 97.2711C952.451 98.9752 952.78 100.762 953.245 102.301C953.711 103.84 954.34 105.187 972.598 116.621C990.855 128.055 1026.71 149.631 1044.72 160.515C1052.55 165.27 1061.42 170.52 1063.97 172.087H1139.43Z" fill="#6B3D90"/>
<path fill-rule="evenodd" clip-rule="evenodd" d="M879.121 11.5989C865.845 3.87545 851.447 0 835.872 0H788.956H741.985C718.225 0 697.97 8.43804 681.19 25.2866C664.411 42.1352 656.008 62.502 656.008 86.3319C656.008 110.162 664.411 130.529 681.19 147.377C697.97 164.226 718.253 172.664 741.985 172.664H787.45H835.872C851.42 172.664 865.845 168.788 879.121 161.065C892.396 153.341 902.825 142.842 910.435 129.622C918.044 116.374 921.849 101.944 921.849 86.3319C921.849 70.7201 918.044 56.2902 910.435 43.0422C902.825 29.7943 892.369 19.3223 879.121 11.5989ZM835.872 127.533C847.341 127.533 857.086 123.492 865.106 115.439C873.126 107.386 877.15 97.6834 877.15 86.3319C877.15 74.9804 873.126 65.278 865.106 57.2248C857.086 49.1715 847.341 45.1311 835.872 45.1311H787.45H741.985C730.68 45.1311 721.017 49.1715 712.997 57.2248C704.977 65.278 700.953 74.9804 700.953 86.3319C700.953 97.6834 704.977 107.386 712.997 115.439C721.017 123.492 730.68 127.533 741.985 127.533H835.872Z" fill="#6B3D90"/>
<path d="M690.443 172.087L551.719 85.8921H551.746L690.388 0H614.32L499.93 71.3248L495.496 74.3207L493.334 75.9973L491.965 77.0143L490.268 78.6084L488.68 80.6424L487.969 81.8517L487.257 84.2705L487.147 85.5073L487.257 88.2009L487.531 89.7676L488.489 92.0214L489.529 93.5606L490.843 95.0173L492.731 96.3641L614.703 172.087H690.443Z" fill="#6B3D90"/>
<path fill-rule="evenodd" clip-rule="evenodd" d="M403.196 0H323.597C303.643 0 286.644 7.06377 272.548 21.2188C258.451 35.3738 251.416 52.4423 251.416 72.4792V174.258H294.418V130.803H432.375V174.258H475.377V72.4792C475.377 52.4423 468.343 35.3738 454.246 21.2188C440.176 7.06377 423.151 0 403.196 0ZM294.418 87.6237H432.375V72.4792C432.375 64.371 429.528 57.4721 423.835 51.7551C418.142 46.0382 411.271 43.1797 403.196 43.1797H323.597C315.522 43.1797 308.652 46.0382 302.958 51.7551C297.265 57.4721 294.418 64.371 294.418 72.4792V87.6237Z" fill="#6B3D90"/>
<path d="M224.7 0H181.698V87.6787H43.0021V0H0V174.505H43.0021V130.886H181.698V174.505H224.7V0Z" fill="#6B3D90"/>
</g>
</mask>
<g mask="url(#mask0_283_2508)">
<rect x="-18" y="-304" width="1411" height="783" rx="70" fill="#6B3D90"/>
<rect x="702" y="46" width="174" height="81" rx="40.5" fill="#A2C617"/>
</g>
<defs>
<clipPath id="clip0_283_2508">
<rect width="1375" height="175" fill="white"/>
</clipPath>
</defs>
</svg>

<svg width="1375" height="175" viewBox="0 0 1375 175" fill="none" xmlns="http://www.w3.org/2000/svg"><mask id="mask0_283_2508" style="mask-type:alpha" maskUnits="userSpaceOnUse" x="0" y="0" width="1375" height="175"><g clip-path="url(#clip0_283_2508)" fill="#6B3D90"><path fill-rule="evenodd" clip-rule="evenodd" d="M1375 0v42.932h-90.17V172.94h-43V42.905h-89.92V0H1375z"/><path d="M1139.43 172.087c-1.23-.715-4.76-2.776-10.45-6.02h.02c-5.69-3.243-25.62-14.457-38.78-22.29a645.256 645.256 0 01-26.99-16.987c-6.27-4.095-6.02-2.968.49-3.215 4.16-.165 11.83-.523 17.87-1.072 6.03-.55 10.43-1.237 15-2.694 4.55-1.457 9.5-3.353 13.72-6.349 2.6-1.841 5.25-3.683 7.39-5.662 10.07-9.4 16.29-19.68 19.02-36.363 1.34-8.108.66-16.162-.3-22.483-.96-6.322-2.41-9.84-4.6-14.953-6.7-15.694-22.06-26.908-29.72-29.904-7.01-2.748-13.11-3.765-19.41-4.095H879.449l.082.055c2.874 1.457 11.634 6.679 16.396 10.142 4.763 3.463 8.021 6.46 11.579 10.445 3.558 3.985 7.555 9.564 9.416 12.23.246.358 2.847 4.646 3.121 4.646 11.304.22 91.447.522 125.397.494 33.94-.027 35.14-.137 37.03 0 1.89.138 6.24 2.227 8.24 3.574 2 1.346 4.02 3.16 5.86 5.552 1.8 2.39 3.39 5.387 4.24 8.41.85 3.051.96 6.157.68 9.153-.3 2.996-.98 5.91-2.27 8.465-1.31 2.556-3.2 4.755-5.17 6.542-1.97 1.759-4.05 3.078-5.97 4.068a29.75 29.75 0 01-4.57 1.896c-.9.275-.9.22-.96.248-.05.029-.32.165-20.25.22-20.09.054-60.11.055-80.122.082-20.009.027-20.009.11-20.42.165-.41.055-1.232.137-2.244.605-.986.467-2.19 1.346-3.23 2.308-1.041.962-1.916 1.98-2.573 3.299-.685 1.319-1.123 2.968-1.177 4.672-.083 1.704.246 3.491.711 5.03.466 1.539 1.095 2.886 19.353 14.32 18.257 11.434 54.112 33.01 72.122 43.894 7.83 4.755 16.7 10.005 19.25 11.572h75.46z"/><path fill-rule="evenodd" clip-rule="evenodd" d="M879.121 11.599C865.845 3.875 851.447 0 835.872 0h-93.887c-23.76 0-44.015 8.438-60.795 25.287-16.779 16.848-25.182 37.215-25.182 61.045s8.403 44.197 25.182 61.045c16.78 16.849 37.063 25.287 60.795 25.287h93.887c15.548 0 29.973-3.876 43.249-11.599 13.275-7.724 23.704-18.223 31.314-31.443 7.609-13.248 11.414-27.678 11.414-43.29 0-15.612-3.805-30.042-11.414-43.29-7.61-13.248-18.066-23.72-31.314-31.443zm-43.249 115.934c11.469 0 21.214-4.041 29.234-12.094 8.02-8.053 12.044-17.756 12.044-29.107 0-11.352-4.024-21.054-12.044-29.107S847.341 45.13 835.872 45.13h-93.887c-11.305 0-20.968 4.04-28.988 12.094-8.02 8.053-12.044 17.755-12.044 29.107 0 11.351 4.024 21.054 12.044 29.107s17.683 12.094 28.988 12.094h93.887z"/><path d="M690.443 172.087L551.719 85.892h.027L690.388 0H614.32L499.93 71.325l-4.434 2.996-2.162 1.676-1.369 1.017-1.697 1.594-1.588 2.034-.711 1.21-.712 2.418-.11 1.237.11 2.694.274 1.567.958 2.253 1.04 1.54 1.314 1.456 1.888 1.347 121.972 75.723h75.74z"/><path fill-rule="evenodd" clip-rule="evenodd" d="M403.196 0h-79.599c-19.954 0-36.953 7.064-51.049 21.219-14.097 14.155-21.132 31.223-21.132 51.26v101.779h43.002v-43.455h137.957v43.455h43.002V72.479c0-20.037-7.034-37.105-21.131-51.26C440.176 7.064 423.151 0 403.196 0zM294.418 87.624h137.957V72.479c0-8.108-2.847-15.007-8.54-20.724-5.693-5.717-12.564-8.575-20.639-8.575h-79.599c-8.075 0-14.945 2.858-20.639 8.575-5.693 5.717-8.54 12.616-8.54 20.724v15.145z"/><path d="M224.7 0h-43.002v87.679H43.002V0H0v174.505h43.002v-43.619h138.696v43.619H224.7V0z"/></g></mask><g mask="url(#mask0_283_2508)"><rect x="-18" y="-304" width="1411" height="783" rx="70" fill="#6B3D90"/><rect x="702" y="46" width="174" height="81" rx="40.5" fill="#A2C617"/></g><defs><clipPath id="clip0_283_2508"><path fill="#fff" d="M0 0h1375v175H0z"/></clipPath></defs></svg>
